public/theme/icons/SO2.svg

<svg width="33" height="34" viewBox="0 0 33 34" fill="none" xmlns="http://www.w3.org/2000/svg">
<circle cx="15" cy="15" r="15" fill="#71909C"/>
<path fill-rule="evenodd" clip-rule="evenodd" d="M29.6486 18.2425C29.8787 17.1984 30 16.1133 30 15C30 6.71573 23.2843 0 15 0C6.71573 0 0 6.71573 0 15C0 23.2843 6.71573 30 15 30C15.3912 30 15.7788 29.985 16.1625 29.9556L8.88867 22.6818L16.9316 14.6389L11.1484 8.85565L18.8113 7.40527L29.6486 18.2425Z" fill="#8DA3AB"/>
<g filter="url(#filter0_d_105_30088)">
<path d="M9.61803 23C8.87465 23 8.39116 22.2177 8.72361 21.5528L11.8944 15.2111C11.9639 15.0723 12 14.9192 12 14.7639V9.5C12 9.22386 11.7761 9 11.5 9V9C11.2239 9 11 8.77614 11 8.5V8C11 7.44772 11.4477 7 12 7H18C18.5523 7 19 7.44772 19 8V8.5C19 8.77614 18.7761 9 18.5 9V9C18.2239 9 18 9.22386 18 9.5V14.7639C18 14.9192 18.0361 15.0723 18.1056 15.2111L21.2764 21.5528C21.6088 22.2177 21.1253 23 20.382 23H9.61803Z" fill="white"/>
<path d="M13.0337 21.06C12.8204 21.06 12.607 21.02 12.3937 20.94C12.1837 20.86 11.9954 20.7433 11.8287 20.59L12.2487 20.085C12.3654 20.185 12.4954 20.2667 12.6387 20.33C12.782 20.3933 12.9204 20.425 13.0537 20.425C13.207 20.425 13.3204 20.3967 13.3937 20.34C13.4704 20.2833 13.5087 20.2067 13.5087 20.11C13.5087 20.0067 13.4654 19.9317 13.3787 19.885C13.2954 19.835 13.182 19.78 13.0387 19.72L12.6137 19.54C12.5037 19.4933 12.3987 19.4317 12.2987 19.355C12.1987 19.275 12.117 19.1767 12.0537 19.06C11.9904 18.9433 11.9587 18.8067 11.9587 18.65C11.9587 18.47 12.007 18.3067 12.1037 18.16C12.2037 18.0133 12.3404 17.8967 12.5137 17.81C12.6904 17.7233 12.892 17.68 13.1187 17.68C13.3054 17.68 13.492 17.7167 13.6787 17.79C13.8654 17.8633 14.0287 17.97 14.1687 18.11L13.7937 18.575C13.687 18.4917 13.5804 18.4283 13.4737 18.385C13.367 18.3383 13.2487 18.315 13.1187 18.315C12.992 18.315 12.8904 18.3417 12.8137 18.395C12.7404 18.445 12.7037 18.5167 12.7037 18.61C12.7037 18.71 12.7504 18.785 12.8437 18.835C12.9404 18.885 13.0587 18.9383 13.1987 18.995L13.6187 19.165C13.8154 19.245 13.972 19.355 14.0887 19.495C14.2054 19.635 14.2637 19.82 14.2637 20.05C14.2637 20.23 14.2154 20.3967 14.1187 20.55C14.022 20.7033 13.882 20.8267 13.6987 20.92C13.5154 21.0133 13.2937 21.06 13.0337 21.06ZM16.292 21.06C15.9987 21.06 15.7404 20.9917 15.517 20.855C15.297 20.7183 15.1237 20.5233 14.997 20.27C14.8737 20.0133 14.812 19.7083 14.812 19.355C14.812 18.9983 14.8737 18.6967 14.997 18.45C15.1237 18.2 15.297 18.01 15.517 17.88C15.7404 17.7467 15.9987 17.68 16.292 17.68C16.5854 17.68 16.842 17.7467 17.062 17.88C17.2854 18.01 17.4587 18.2 17.582 18.45C17.7087 18.7 17.772 19.0017 17.772 19.355C17.772 19.7083 17.7087 20.0133 17.582 20.27C17.4587 20.5233 17.2854 20.7183 17.062 20.855C16.842 20.9917 16.5854 21.06 16.292 21.06ZM16.292 20.425C16.5154 20.425 16.692 20.3283 16.822 20.135C16.952 19.9417 17.017 19.6817 17.017 19.355C17.017 19.0283 16.952 18.7733 16.822 18.59C16.692 18.4067 16.5154 18.315 16.292 18.315C16.0687 18.315 15.892 18.4067 15.762 18.59C15.632 18.7733 15.567 19.0283 15.567 19.355C15.567 19.6817 15.632 19.9417 15.762 20.135C15.892 20.3283 16.0687 20.425 16.292 20.425Z" fill="#71909C"/>
<path d="M18.111 22V21.748C18.273 21.594 18.416 21.455 18.54 21.331C18.666 21.205 18.764 21.09 18.834 20.986C18.904 20.88 18.939 20.782 18.939 20.692C18.939 20.598 18.914 20.527 18.864 20.479C18.816 20.429 18.751 20.404 18.669 20.404C18.601 20.404 18.539 20.424 18.483 20.464C18.429 20.502 18.378 20.547 18.33 20.599L18.09 20.362C18.184 20.262 18.28 20.187 18.378 20.137C18.476 20.085 18.593 20.059 18.729 20.059C18.855 20.059 18.965 20.084 19.059 20.134C19.153 20.184 19.226 20.255 19.278 20.347C19.332 20.437 19.359 20.543 19.359 20.665C19.359 20.771 19.329 20.88 19.269 20.992C19.211 21.102 19.136 21.213 19.044 21.325C18.952 21.435 18.854 21.544 18.75 21.652C18.798 21.646 18.852 21.641 18.912 21.637C18.972 21.631 19.024 21.628 19.068 21.628H19.452V22H18.111Z" fill="#71909C"/>
</g>
<defs>
<filter id="filter0_d_105_30088" x="4.6167" y="5" width="20.7666" height="24" filterUnits="userSpaceOnUse" color-interpolation-filters="sRGB">
<feFlood flood-opacity="0" result="BackgroundImageFix"/>
<feColorMatrix in="SourceAlpha" type="matrix" values="0 0 0 0 0 0 0 0 0 0 0 0 0 0 0 0 0 0 127 0" result="hardAlpha"/>
<feOffset dy="2"/>
<feGaussianBlur stdDeviation="2"/>
<feComposite in2="hardAlpha" operator="out"/>
<feColorMatrix type="matrix" values="0 0 0 0 0 0 0 0 0 0 0 0 0 0 0 0 0 0 0.1 0"/>
<feBlend mode="normal" in2="BackgroundImageFix" result="effect1_dropShadow_105_30088"/>
<feBlend mode="normal" in="SourceGraphic" in2="effect1_dropShadow_105_30088" result="shape"/>
</filter>
</defs>
</svg>

<svg xmlns="http://www.w3.org/2000/svg" width="33" height="34" fill="none"><circle cx="15" cy="15" r="15" fill="#71909C"/><path fill="#8DA3AB" fill-rule="evenodd" d="M29.649 18.243c.23-1.045.351-2.13.351-3.243 0-8.284-6.716-15-15-15S0 6.716 0 15s6.716 15 15 15q.587 0 1.163-.044l-7.274-7.274 8.043-8.043-5.784-5.783 7.663-1.45z" clip-rule="evenodd"/><g filter="url(#a)"><path fill="#fff" d="M9.618 23a1 1 0 0 1-.894-1.447l3.17-6.342a1 1 0 0 0 .106-.447V9.5a.5.5 0 0 0-.5-.5.5.5 0 0 1-.5-.5V8a1 1 0 0 1 1-1h6a1 1 0 0 1 1 1v.5a.5.5 0 0 1-.5.5.5.5 0 0 0-.5.5v5.264c0 .155.036.308.106.447l3.17 6.342A1 1 0 0 1 20.382 23z"/><path fill="#71909C" d="M13.034 21.06q-.32 0-.64-.12a1.8 1.8 0 0 1-.565-.35l.42-.505q.174.15.39.245.214.095.415.095.23 0 .34-.085a.27.27 0 0 0 .115-.23.24.24 0 0 0-.13-.225 3 3 0 0 0-.34-.165l-.425-.18a1.4 1.4 0 0 1-.315-.185 1 1 0 0 1-.245-.295.85.85 0 0 1-.095-.41q0-.27.145-.49.15-.22.41-.35.264-.13.605-.13a1.52 1.52 0 0 1 1.05.43l-.375.465a1.4 1.4 0 0 0-.32-.19.9.9 0 0 0-.355-.07.53.53 0 0 0-.305.08.25.25 0 0 0-.11.215q0 .15.14.225a4 4 0 0 0 .355.16l.42.17q.294.12.47.33.174.21.175.555a.9.9 0 0 1-.145.5 1.04 1.04 0 0 1-.42.37q-.275.14-.665.14m3.258 0q-.44 0-.775-.205a1.4 1.4 0 0 1-.52-.585 2.1 2.1 0 0 1-.185-.915q0-.535.185-.905.19-.375.52-.57.335-.2.775-.2t.77.2q.335.195.52.57.19.375.19.905t-.19.915a1.37 1.37 0 0 1-.52.585q-.33.205-.77.205m0-.635q.335 0 .53-.29t.195-.78-.195-.765a.62.62 0 0 0-.53-.275q-.335 0-.53.275-.195.274-.195.765 0 .49.195.78t.53.29M18.111 22v-.252q.243-.231.429-.417.189-.189.294-.345a.54.54 0 0 0 .105-.294q0-.141-.075-.213a.26.26 0 0 0-.195-.075q-.102 0-.186.06a1 1 0 0 0-.153.135l-.24-.237q.141-.15.288-.225a.74.74 0 0 1 .351-.078q.189 0 .33.075t.219.213q.081.135.081.318a.7.7 0 0 1-.09.327q-.087.165-.225.333-.138.165-.294.327a3 3 0 0 1 .162-.015q.09-.009.156-.009h.384V22z"/></g><defs><filter id="a" width="20.767" height="24" x="4.617" y="5" color-interpolation-filters="sRGB" filterUnits="userSpaceOnUse"><feFlood flood-opacity="0" result="BackgroundImageFix"/><feColorMatrix in="SourceAlpha" result="hardAlpha" values="0 0 0 0 0 0 0 0 0 0 0 0 0 0 0 0 0 0 127 0"/><feOffset dy="2"/><feGaussianBlur stdDeviation="2"/><feComposite in2="hardAlpha" operator="out"/><feColorMatrix values="0 0 0 0 0 0 0 0 0 0 0 0 0 0 0 0 0 0 0.1 0"/><feBlend in2="BackgroundImageFix" result="effect1_dropShadow_105_30088"/><feBlend in="SourceGraphic" in2="effect1_dropShadow_105_30088" result="shape"/></filter></defs></svg>
